local/share/icons/dracula-icons-main/scalable/mimetypes/text-x-install.svg

<?xml version="1.0" encoding="UTF-8"?>
<svg xmlns="http://www.w3.org/2000/svg" xmlns:xlink="http://www.w3.org/1999/xlink" width="64" height="64" viewBox="0 0 64 64">
<defs>
<filter id="filter-remove-color" x="0%" y="0%" width="100%" height="100%">
<feColorMatrix color-interpolation-filters="sRGB" values="0 0 0 0 1 0 0 0 0 1 0 0 0 0 1 0 0 0 1 0" />
</filter>
<mask id="mask-0">
<g filter="url(#filter-remove-color)">
<rect x="-6.4" y="-6.4" width="76.8" height="76.8" fill="rgb(0%, 0%, 0%)" fill-opacity="0.1"/>
</g>
</mask>
<linearGradient id="linear-pattern-0" gradientUnits="userSpaceOnUse" x1="49.570999" y1="52.714001" x2="51.714001" y2="54.856998" gradientTransform="matrix(0.617345, 0, 0, 0.617345, -18.167916, -19.050025)">
<stop offset="0" stop-color="rgb(0%, 0%, 0%)" stop-opacity="1"/>
<stop offset="1" stop-color="rgb(0%, 0%, 0%)" stop-opacity="0"/>
</linearGradient>
<clipPath id="clip-0">
<rect x="0" y="0" width="17" height="17"/>
</clipPath>
<g id="source-5171" clip-path="url(#clip-0)">
<path fill-rule="evenodd" fill="url(#linear-pattern-0)" d="M 14.816406 12.171875 L 11.113281 15.875 L 13.492188 15.875 C 14.226562 15.875 14.816406 15.285156 14.816406 14.550781 Z M 14.816406 12.171875 "/>
</g>
</defs>
<path fill-rule="nonzero" fill="rgb(95.686275%, 95.686275%, 95.686275%)" fill-opacity="1" d="M 3.441406 1.058594 L 13.492188 1.058594 C 14.222656 1.058594 14.816406 1.652344 14.816406 2.382812 L 14.816406 14.550781 C 14.816406 15.28125 14.222656 15.875 13.492188 15.875 L 3.441406 15.875 C 2.707031 15.875 2.117188 15.28125 2.117188 14.550781 L 2.117188 2.382812 C 2.117188 1.652344 2.707031 1.058594 3.441406 1.058594 Z M 3.441406 1.058594 "/>
<g mask="url(#mask-0)">
<use xlink:href="#source-5171"/>
</g>
<path fill-rule="nonzero" fill="rgb(80%, 80%, 80%)" fill-opacity="1" d="M 8.464844 4.761719 C 8.171875 4.761719 7.9375 5 7.9375 5.292969 L 7.9375 8.246094 L 6.96875 7.28125 C 6.761719 7.074219 6.429688 7.074219 6.222656 7.28125 C 6.015625 7.488281 6.015625 7.820312 6.222656 8.027344 L 8.085938 9.894531 C 8.136719 9.945312 8.199219 9.984375 8.265625 10.015625 C 8.394531 10.066406 8.539062 10.066406 8.664062 10.015625 C 8.667969 10.015625 8.667969 10.015625 8.667969 10.015625 C 8.734375 9.988281 8.792969 9.949219 8.839844 9.898438 L 10.710938 8.027344 C 10.917969 7.820312 10.917969 7.488281 10.710938 7.28125 C 10.503906 7.074219 10.171875 7.074219 9.964844 7.28125 L 8.996094 8.246094 L 8.996094 5.292969 C 8.996094 5 8.757812 4.761719 8.464844 4.761719 Z M 5.292969 10.054688 L 5.292969 11.113281 C 5.292969 11.699219 5.761719 12.171875 6.351562 12.171875 L 10.582031 12.171875 C 11.167969 12.171875 11.640625 11.699219 11.640625 11.113281 L 11.640625 10.054688 L 10.582031 10.054688 L 10.582031 11.113281 L 6.351562 11.113281 L 6.351562 10.054688 Z M 5.292969 10.054688 "/>
</svg>

<svg width="64" height="64" version="1.1" viewBox="0 0 16.933 16.933" xmlns="http://www.w3.org/2000/svg">
 <defs>
  <linearGradient id="a" x1="49.571" x2="51.714" y1="52.714" y2="54.857" gradientTransform="matrix(2.3333,0,0,2.3333,-68.667,-72.001)" gradientUnits="userSpaceOnUse">
   <stop offset="0"/>
   <stop stop-opacity="0" offset="1"/>
  </linearGradient>
 </defs>
 <g transform="scale(.26458)">
  <rect x="8" y="4" width="48" height="56" ry="5" fill="#f4f4f4" style="paint-order:stroke fill markers"/>
  <path d="m56 46-14 14h9c2.77 0 5-2.23 5-5z" fill="url(#a)" fill-rule="evenodd" opacity=".1" stroke-width="8.8191" style="paint-order:stroke fill markers"/>
 </g>
 <path class="ColorScheme-Text" d="m8.4665 4.7624c-0.29289 0-0.52916 0.23627-0.52916 0.52916v2.9558l-0.96735-0.96735c-0.20729-0.20729-0.54096-0.20729-0.74828 0-0.20732 0.20729-0.20729 0.54096 0 0.74828l1.8655 1.8655c0.050012 0.05144 0.11022 0.092194 0.17776 0.11989 0.1282 0.0532 0.27252 0.05435 0.401 0.0021 0.0011-4.59e-4 2e-3 -0.0016 0.0031-0.0021 0.06483-0.026728 0.12385-0.065976 0.17259-0.11472l1.8707-1.8707c0.20729-0.20729 0.20729-0.54096 0-0.74828-0.20729-0.20729-0.54096-0.20729-0.74828 0l-0.96841 0.96735v-2.9558c0-0.29289-0.23627-0.52916-0.52916-0.52916zm-3.1749 5.2916v1.0583c0 0.5863 0.47201 1.0583 1.0583 1.0583h4.2332c0.5863 0 1.0583-0.47201 1.0583-1.0583v-1.0583h-1.0583v1.0583h-4.2332v-1.0583z" fill="#ccc" stroke-width=".52916"/>
</svg>
